app/images/icons/advice-info-1.svg

<svg xmlns="http://www.w3.org/2000/svg" fill="none" viewBox="0 0 40 40"><defs/><path fill="#F3F1EF" d="M3.62367 0v5.2907H1.5625v2.33922h2.06117v4.43058H1.5625v2.3393h2.06117v4.4306H1.5625v2.3392h2.06117v4.4306H1.5625v2.3393h2.06117v4.4306H1.5625v2.3392h2.06117V40H38.4375V0H3.62367zM36.0938 37.6608H5.96742v-2.9516h2.0611V32.37h-2.0611v-4.4306h2.0611v-2.3392h-2.0611v-4.4307h2.0611v-2.3392h-2.0611v-4.4306h2.0611v-2.3392h-2.0611V7.62992h2.0611V5.2907h-2.0611V2.33914H36.0938V37.6608z"/><path fill="#F3F1EF" d="M24.1565 9.12561h7.6003v2.33919h-7.6003V9.12561zM24.1565 18.8372h7.6003v2.3392h-7.6003v-2.3392zM24.1565 29.3149h7.6003v2.3393h-7.6003v-2.3393zM20.564 8.11061l-1.6572-1.65407-3.7905 3.78316-1.7544-1.75097-1.6573 1.65397 3.4117 3.405 5.4477-5.43709zM20.564 17.9657l-1.6572-1.6541-3.7905 3.7832-1.7544-1.751-1.6573 1.6541 3.4117 3.4049 5.4477-5.4371zM20.564 27.821l-1.6572-1.654-3.7905 3.783-1.7544-1.7509-1.6573 1.6541 3.4117 3.4049 5.4477-5.4371z"/></svg>

<svg xmlns="http://www.w3.org/2000/svg" fill="none" viewBox="0 0 40 40"><defs/><path fill="#F3F1EF" d="M3.624 0v5.29H1.562v2.34h2.062v4.43H1.562v2.34h2.062v4.43H1.562v2.34h2.062v4.43H1.562v2.34h2.062v4.43H1.562v2.34h2.062V40h34.814V0H3.623zm32.47 37.66H5.967v-2.95H8.03v-2.34H5.967v-4.43H8.03V25.6H5.967v-4.43H8.03v-2.34H5.967V14.4H8.03v-2.34H5.967V7.63H8.03V5.29H5.967V2.34h30.127v35.32z"/><path fill="#F3F1EF" d="M24.157 9.126h7.6v2.339h-7.6v-2.34zm0 9.711h7.6v2.34h-7.6v-2.34zm0 10.478h7.6v2.34h-7.6v-2.34zM20.564 8.11l-1.657-1.654-3.79 3.783-1.755-1.751-1.657 1.654 3.411 3.405 5.448-5.437zm0 9.855l-1.657-1.654-3.79 3.783-1.755-1.751-1.657 1.654 3.411 3.405 5.448-5.437zm0 9.855l-1.657-1.654-3.79 3.783-1.755-1.75-1.657 1.653 3.411 3.405 5.448-5.437z"/></svg>
